icons/align-justify.svg

<svg xmlns="http://www.w3.org/2000/svg" width="24" height="24" viewBox="0 0 24 24">
    <path fill="#3A3A47" fill-rule="evenodd" d="M19 17c.667.006 1 .341 1 1.005 0 .663-.333.995-1 .995H5c-.668 0-1.001-.333-1-1 .001-.667.336-1 1.003-1zM4.998 13H19c.667 0 1 .333 1 1 0 .619-.287.95-.862.995L19 15H5c-.666 0-1-.332-1-1 0-.62.286-.952.86-.995L4.998 13H19zM19 9c.667 0 1 .332 1 1 0 .62-.287.952-.862.995L19 11H5c-.666 0-.999-.333-1-1 0-.619.286-.95.86-.995L4.996 9H19zm-.005-4c.669 0 1.003.333 1.005 1 .001.619-.286.95-.862.995L19 7H5c-.666 0-1-.333-1-1 0-.619.287-.95.862-.995L4.999 5h13.996z"/>
</svg>

<svg width="24" height="24" viewBox="0 0 24 24" fill="none" xmlns="http://www.w3.org/2000/svg">
<path d="M5 7C4.334 7 4 6.667 4 6C4 5.333 4.333 5 5 5H18.995C19.664 5 19.998 5.333 20 6C20.002 6.667 19.668 7 19 7H5ZM5 11C4.334 11 4.001 10.667 4 10C3.999 9.333 4.331 9 4.997 9H19C19.667 9 20 9.332 20 10C20 10.668 19.667 11 19 11H5ZM5 15C4.334 15 4 14.668 4 14C4 13.332 4.332 13 4.998 13H19C19.667 13 20 13.333 20 14C20 14.667 19.667 15 19 15H5ZM5 19C4.332 19 3.999 18.667 4 18C4.001 17.333 4.336 17 5.003 17H19C19.667 17.006 20 17.341 20 18.005C20 18.668 19.667 19 19 19H5Z" fill="#3A3A47"/>
</svg>
